X:1
T:Title
%%score { 1 | 2 }
L:1/8
M:4/4
K:A
V:1 treble nm="Grand Piano"
V:2 bass 
V:1
 z4 z2 [A,C]>[B,D] | [CE]2 [CE]2 [EA]2 B2 | c6 [EB]>[EA] | [FB]2 [FA]2 F2 A2 |[M:3/4] E6 | %5
[M:1/4] C>[B,D] |[M:4/4] [CE]2 [CE]2 [EA]2 B2 | c6 A>A | [EB]2 [EB]2 [DB]2 [Dc]2 |[M:3/4] B6 | %10
[M:1/4] E2 |[M:4/4] [Ec]4 [Ec]2 [DB]2 | [CA]4 [CE]2 [A,C]>[B,D] | [CE]2 [CA]2 [CA]2 [CF]2 | %14
 [DG]6 E2 | d4 d2 c2 | B4 G2 G>F | E2 d2 c2 B2 | c6 [CE]2 | [Ec]4 [Ec]2 [DB]2 | [CA]4 [CE]2 A>A | %21
 A2 A2 B2 c2 | d6 F2 | F2 [FA]2 [EG]2 [DF]2 | [CE]2 [CA]2 [Ec]2 [Fd]2 | [Ec]4 [DB]4 | %26
[M:3/4] [CA]6 |] %27
V:2
 z4 z2 [A,,E,]>[A,,E,] | [A,,A,]2 [A,,A,]2 [C,A,]2 [E,G,E]2 | [A,E]6 [C,A,]>[C,A,] | %3
 [D,A,]2 [D,A,]2 [D,A,D]2 [F,A,D]2 |[M:3/4] [A,C]6 |[M:1/4] [A,,E,A,]>[A,,E,] | %6
[M:4/4] [A,,A,]2 [A,,A,]2 [C,A,]2 [E,G,E]2 | [A,E]6 [F,A,C]>[F,A,C] | %8
 [B,,G,]2 [B,,G,]2 [B,,F,]2 [B,,A,]2 |[M:3/4] [E,G,E]6 |[M:1/4] E,2 | %11
[M:4/4] [A,,A,]4 [A,,A,]2 [A,,E,]2 | [A,,E,]4 [A,,A,]2 [A,,E,]>[A,,E,] | %13
 [A,,A,]2 [A,,E,]2 [A,,E,]2 [A,,E,]2 | [B,,E,]6 E,2 | [E,B,E]4 [E,B,E]2 [E,A,E]2 | %16
 [E,G,E]4 [E,B,E]2 [E,B,D]>[E,A,D] | [E,G,D]2 [E,B,E]2 [E,A,E]2 [E,G,E]2 | [A,E]6 [A,,A,]2 | %19
 [A,,A,]4 [A,,A,]2 [A,,E,]2 | [A,,E,]4 [A,,A,]2 [A,CE]>[A,CE] | %21
 [A,CE]2 [A,CE]2 [G,B,E]2 [=G,A,E]2 | [F,A,D]6 [D,A,D]2 | [D,A,D]2 [D,A,]2 [D,A,]2 [D,A,]2 | %24
 [A,,A,]2 [A,,A,]2 [A,,A,]2 [D,A,]2 | [E,A,]4 [E,G,]4 |[M:3/4] [A,,A,]6 |] %27

